!!!COM: Corelli, Arcangelo
!!!OTL: 
!!!ONM: Opus 6, No. 2
!!!OMV: 4
!!!CDT: 1653/2/17/-1713/1/8/
!!!OCY: Italia
**kern	**kern	**kern	**kern	**kern	**kern	**kern
*clefC	*clefG	*clefG	*clefG	*clefC	*clefG	*clefG
*k[b-]	*k[b-]	*k[b-]	*k[b-]	*k[b-]	*k[b-]	*k[b-]
*F:	*F:	*F:	*F:	*F:	*F:	*F:
*M2/2	*M2/2	*M2/2	*M2/2	*M2/2	*M2/2	*M2/2
=1	=1	=1	=1	=1	=1	=1
1r	1r	1r	1r	4F	4a	4cc
.	.	.	.	4A	4cc	4ff
.	.	.	.	4G	4b-	4ee
.	.	.	.	4B-	4dd	4gg
=2	=2	=2	=2	=2	=2	=2
1r	1r	1r	1r	4A	4cc	4ff
.	.	.	.	4F	4ff	4aa
.	.	.	.	2c	2ee	2gg
=3	=3	=3	=3	=3	=3	=3
4A	4f	4aa	4ccc	4A	4aa	4ccc
4B-	4f	8gg	8bb-	4B-	8gg	8bb-
.	.	8ff	8aa	.	8ff	8aa
4c	4cc	4ee	4gg	4c	4ee	4gg
4F	4cc	[4ff	8aa	4F	[4ff	8aa
.	.	.	8bb-	.	.	8bb-
=4	=4	=4	=4	=4	=4	=4
4c	4.cc	4ff]	2gg	4c	4ff]	2gg
4C	.	4ee	.	4C	4ee	.
.	8cc	.	.	.	.	.
2F	2a	2ff	2ff	2F	2ff	2ff
=5	=5	=5	=5	=5	=5	=5
1r	1r	1r	1r	2f	4cc	4aa
.	.	.	.	.	4cc	8gg
.	.	.	.	.	.	8ff
.	.	.	.	2e	4cc	4gg
.	.	.	.	.	4gg	[4ccc
=6	=6	=6	=6	=6	=6	=6
1r	1r	1r	1r	2d	4ff	4ccc]
.	.	.	.	.	8gg	4bb
.	.	.	.	.	8ff	.
.	.	.	.	2c	2ee	2ccc
=7	=7	=7	=7	=7	=7	=7
4E	4c	4ee	4gg	4E	4ee	4gg
4F	4c	8dd	8ff	4F	8dd	8ff
.	.	8cc	8ee	.	8cc	8ee
4G	4g	4b	8dd	4G	4b	8dd
.	.	.	8gg	.	.	8gg
4C	4g	[4cc	8ff	4C	[4cc	8ff
.	.	.	8ee	.	.	8ee
=8	=8	=8	=8	=8	=8	=8
4G	4.g	4cc]	2dd	4G	4cc]	2dd
4GG	.	4b	.	4GG	4b	.
.	8g	.	.	.	.	.
2C	2e	2cc	2cc	2C	2cc	2cc
=9	=9	=9	=9	=9	=9	=9
1r	1r	1r	1r	4A	4cc	8ff
.	.	.	.	.	.	8gg
.	.	.	.	4F	4cc	8ff
.	.	.	.	.	.	8gg
.	.	.	.	4B-	4dd	8ff
.	.	.	.	.	.	8gg
.	.	.	.	4A	4cc	8ff
.	.	.	.	.	.	8gg
=10	=10	=10	=10	=10	=10	=10
2r	2r	2r	2r	4B-	4dd	8ff
.	.	.	.	.	.	8gg
.	.	.	.	4A	4cc	8ff
.	.	.	.	.	.	8gg
4B-	4b-	4dd	4ff	2B-	2dd	2ff
4BB-	4f	4B-	4d	.	.	.
=11	=11	=11	=11	=11	=11	=11
1r	1r	1r	1r	4B	4dd	8gg
.	.	.	.	.	.	8aa
.	.	.	.	4G	4dd	8gg
.	.	.	.	.	.	8aa
.	.	.	.	4c	4ee	8gg
.	.	.	.	.	.	8aa
.	.	.	.	4B	4dd	8gg
.	.	.	.	.	.	8aa
=12	=12	=12	=12	=12	=12	=12
2r	2r	2r	2r	4c	4ee	8gg
.	.	.	.	.	.	8aa
.	.	.	.	4B	4dd	8gg
.	.	.	.	.	.	8aa
4c	4cc	4ee	4gg	2c	2ee	2gg
4C	4g	4c	4e	.	.	.
=13	=13	=13	=13	=13	=13	=13
4F	4dd	4ff	4aa	4F	4ff	4aa
4G	4d	8ee	8gg	4G	8ee	8gg
.	.	8dd	8ff	.	8dd	8ff
4A	4a	4cc#	4ee	4A	4cc#	4ee
4D	4a	[4dd	8ff	4D	[4dd	8ff
.	.	.	8gg	.	.	8gg
=14	=14	=14	=14	=14	=14	=14
4A	4.a	4dd]	2ee	4A	4dd]	2ee
4AA	.	4cc#	.	4AA	4cc#	.
.	8a	.	.	.	.	.
2D	2a	2dd	2dd	2D	2dd	2dd
=15	=15	=15	=15	=15	=15	=15
1r	1r	1r	1r	4f	4aa	4ddd
.	.	.	.	4d	4ff	8ccc
.	.	.	.	.	.	8bb-
.	.	.	.	4e	4gg	4ccc
.	.	.	.	4f	4aa	4ff
=16	=16	=16	=16	=16	=16	=16
1r	1r	1r	1r	4d	4ff	2bb-
.	.	.	.	4e	4gg	.
.	.	.	.	2f	2cc	2aa
=17	=17	=17	=17	=17	=17	=17
4A	4cc	4aa	4ff	4A	4aa	4ff
4F	4a	4ccc	4aa	4F	4ccc	4aa
4B-	4f	4ff	4dd	4B-	4ff	4dd
4A	4a	4cc	4ff	4A	4cc	4ff
=18	=18	=18	=18	=18	=18	=18
4G	4.b-	8dd	4bb-	4G	8dd	4bb-
.	.	8ee	.	.	8ee	.
4F	.	4ff	4aa	4F	4ff	4aa
.	16a	.	.	.	.	.
.	16b-	.	.	.	.	.
2c	2cc	2ee	2gg	2c	2ee	2gg
=19	=19	=19	=19	=19	=19	=19
1r	1r	1r	1r	2A	2cc	4ccc
.	.	.	.	.	.	4ff
.	.	.	.	2G	2b-	4ee
.	.	.	.	.	.	4ccc
=20	=20	=20	=20	=20	=20	=20
1r	1r	1r	1r	2F	2a	4ff
.	.	.	.	.	.	4ccc
.	.	.	.	2C	2g	2ee
=21	=21	=21	=21	=21	=21	=21
4A	4cc	4cc	4ff	4A	4cc	4ff
4AA	4cc	4aa	4ccc	4AA	4aa	4ccc
4BB-	4cc	4gg	4ee	4BB-	4gg	4ee
4F	4cc	8aa	8ff	4F	8aa	8ff
.	.	8ff	8gg	.	8ff	8gg
=22	=22	=22	=22	=22	=22	=22
4c	4.cc	4.ff	2gg	4c	4.ff	2gg
4C	.	.	.	4C	.	.
.	8cc	8ee	.	.	8ee	.
2F	2a	2ff	2ff	2F	2ff	2ff
=23	=23	=23	=23	=23	=23	=23
1r	1r	1r	1r	2A	2cc	4ccc
.	.	.	.	.	.	4ff
.	.	.	.	2G	2b-	4ee
.	.	.	.	.	.	4ccc
=24	=24	=24	=24	=24	=24	=24
1r	1r	1r	1r	2F	2a	4ff
.	.	.	.	.	.	4ccc
.	.	.	.	2C	2g	2ee
=25	=25	=25	=25	=25	=25	=25
4A	4cc	4cc	4ff	4A	4cc	4ff
4AA	4cc	4aa	4ccc	4AA	4aa	4ccc
4BB-	4cc	4gg	4ee	4BB-	4gg	4ee
4FF	4c	8aa	8ff	4FF	8aa	8ff
.	.	8ff	8gg	.	8ff	8gg
=26	=26	=26	=26	=26	=26	=26
4C	4.c	4.ff	2gg	4C	4.ff	2gg
4CC	.	.	.	4CC	.	.
.	8c	8ee	.	.	8ee	.
2FF	2A	2ff	2ff	2FF	2ff	2ff
=27	=27	=27	=27	=27	=27	=27
1r	1r	1r	1r	4c#	4a	8ee
.	.	.	.	.	.	8aa
.	.	.	.	4A	4a	8ee
.	.	.	.	.	.	8aa
.	.	.	.	4d	4a	8ff
.	.	.	.	.	.	8aa
.	.	.	.	4d	4A	8ff
.	.	.	.	.	.	8aa
=28	=28	=28	=28	=28	=28	=28
1r	1r	1r	1r	4c#	4a	8ee
.	.	.	.	.	.	8aa
.	.	.	.	4A	4a	8ee
.	.	.	.	.	.	8aa
.	.	.	.	2d	2a	2ff
=29	=29	=29	=29	=29	=29	=29
4F#	4d	4dd	8aa	4F#	4dd	8aa
.	.	.	8ddd	.	.	8ddd
4D	4f#	4dd	8aa	4D	4dd	8aa
.	.	.	8ddd	.	.	8ddd
4G	4g	4dd	8bb-	4G	4dd	8bb-
.	.	.	8ddd	.	.	8ddd
4G	4d	4d	8bb-	4G	4d	8bb-
.	.	.	8ddd	.	.	8ddd
=30	=30	=30	=30	=30	=30	=30
4F#	4d	4dd	8aa	4F#	4dd	8aa
.	.	.	8ddd	.	.	8ddd
4D	4f#	4dd	8aa	4D	4dd	8aa
.	.	.	8ddd	.	.	8ddd
2G	2g	2dd	2bb-	2G	2dd	2bb-
=31	=31	=31	=31	=31	=31	=31
1r	1r	1r	1r	4G#	4ee	8b
.	.	.	.	.	.	8ee
.	.	.	.	4E	4ee	8b
.	.	.	.	.	.	8ee
.	.	.	.	4A	4ee	8cc
.	.	.	.	.	.	8ee
.	.	.	.	4A	4e	8cc
.	.	.	.	.	.	8ee
=32	=32	=32	=32	=32	=32	=32
2.r	1r	1r	2.r	4G#	4ee	8b
.	.	.	.	.	.	8ee
.	.	.	.	4E	4ee	8b
.	.	.	.	.	.	8ee
.	.	.	.	4A	2ee	4cc
4c	.	.	4ee	4c	.	4ee
=33	=33	=33	=33	=33	=33	=33
4d	4r	4r	4ff	4d	4r	4ff
4D	4d	4ff	2dd	4D	4ff	2dd
4E	4B	4g#	.	4E	4g#	.
4AA	8c	[4a	4cc	4AA	[4a	4cc
.	8d	.	.	.	.	.
=34	=34	=34	=34	=34	=34	=34
4E	4.e	4a]	2b	4E	4a]	2b
4EE	.	4g#	.	4EE	4g#	.
.	8e	.	.	.	.	.
4AA	2e	2a	4a	4AA	2a	4a
4c	.	.	4ee	4c	.	4ee
=35	=35	=35	=35	=35	=35	=35
4d	4r	4r	4ff	4d	4r	4ff
4D	4d	4ff	2dd	4D	4ff	2dd
4E	4B	4g#	.	4E	4g#	.
4AA	8c	[4a	4cc	4AA	[4a	4cc
.	8d	.	.	.	.	.
=36	=36	=36	=36	=36	=36	=36
4E	4.e	4a]	2b	4E	4a]	2b
4EE	.	4g#	.	4EE	4g#	.
.	8e	.	.	.	.	.
2AA	2e	2a	2a	2AA	2a	2a
=37	=37	=37	=37	=37	=37	=37
1r	1r	1r	1r	4F	4a	4cc
.	.	.	.	4A	4cc	4ff
.	.	.	.	4G	4b-	4ee
.	.	.	.	4B-	4dd	4gg
=38	=38	=38	=38	=38	=38	=38
1r	1r	1r	1r	4A	4cc	4ff
.	.	.	.	4F	4ff	4aa
.	.	.	.	2c	2ee	2gg
=39	=39	=39	=39	=39	=39	=39
4A	4cc	4aa	4ff	4A	4aa	4ff
4F	4a	4ccc	4aa	4F	4ccc	4aa
4B-	4f	4ff	4dd	4B-	4ff	4dd
4A	4a	4cc	4ff	4A	4cc	4ff
=40	=40	=40	=40	=40	=40	=40
4G	4.b-	8dd	4bb-	4G	8dd	4bb-
.	.	8ee	.	.	8ee	.
4F	.	4ff	4aa	4F	4ff	4aa
.	16a	.	.	.	.	.
.	16b-	.	.	.	.	.
2C	2cc	2ee	2gg	2C	2ee	2gg
=41	=41	=41	=41	=41	=41	=41
1r	1r	1r	1r	2A	4a	8cc
.	.	.	.	.	.	8ff
.	.	.	.	.	4cc	8ee
.	.	.	.	.	.	8ff
.	.	.	.	2B-	4f	8dd
.	.	.	.	.	.	8gg
.	.	.	.	.	4dd	8ff
.	.	.	.	.	.	8gg
=42	=42	=42	=42	=42	=42	=42
1r	1r	1r	1r	2c	4g	8ee
.	.	.	.	.	.	8aa
.	.	.	.	.	4ee	8gg
.	.	.	.	.	.	8aa
.	.	.	.	2d	2a	2ff
=43	=43	=43	=43	=43	=43	=43
2AA	4f	4a	8cc	2AA	4a	8cc
.	.	.	8ff	.	.	8ff
.	4f	4cc	8ee	.	4cc	8ee
.	.	.	8ff	.	.	8ff
2BB-	4f	4f	8dd	2BB-	4f	8dd
.	.	.	8gg	.	.	8gg
.	[4g	4dd	8ff	.	4dd	8ff
.	.	.	8gg	.	.	8gg
=44	=44	=44	=44	=44	=44	=44
2C	4g]	4g	8ee	2C	4g	8ee
.	.	.	8aa	.	.	8aa
.	2a	4ee	8gg	.	4ee	8gg
.	.	.	8aa	.	.	8aa
2D	.	4a	8ff	2D	4a	8ff
.	.	.	8bb-	.	.	8bb-
.	[4b-	4ff	8aa	.	4ff	8aa
.	.	.	8bb-	.	.	8bb-
=45	=45	=45	=45	=45	=45	=45
2E	4b-]	4ee	4gg	2E	4ee	4gg
.	2cc	4gg	4ccc	.	4gg	4ccc
4F	.	4cc	4aa	4F	4cc	4aa
4FF	4dd	8bb-	8gg	4FF	8bb-	8gg
.	.	8aa	8ff	.	8aa	8ff
=46	=46	=46	=46	=46	=46	=46
4C	4.g	2gg	4cc	4C	2gg	4cc
4CC	.	.	8ff	4CC	.	8ff
.	8cc	.	8ee	.	.	8ee
2FF	2a	2ff	2ff	2f	2ff	4ff
.	.	.	.	.	.	4cc
=47	=47	=47	=47	=47	=47	=47
1r	1r	1r	1r	2e	4r	2f
.	.	.	.	.	4cc	.
.	.	.	.	2d	2f	4r
.	.	.	.	.	.	4cc
=48	=48	=48	=48	=48	=48	=48
1r	1r	1r	1r	2c	4r	2f
.	.	.	.	.	4cc	.
.	.	.	.	2B-	2f	4r
.	.	.	.	.	.	4cc
=49	=49	=49	=49	=49	=49	=49
4A	4f	4f	4cc	4A	4r	4f
4B-	4d	2b-	4dd	4B-	2b-	4dd
4c	4g	.	4e	4c	.	4e
4F	8a	4a	[4f	4F	4a	[4f
.	8b-	.	.	.	.	.
=50	=50	=50	=50	=50	=50	=50
4c	4.cc	2g	4f]	4c	2g	4f]
4C	.	.	4e	4C	.	4e
.	8cc	.	.	.	.	.
2F	2a	2f	2f	2F	2f	4f
.	.	.	.	.	.	4cc
=51	=51	=51	=51	=51	=51	=51
1r	1r	1r	1r	2E	4r	2f
.	.	.	.	.	4cc	.
.	.	.	.	2D	2f	4r
.	.	.	.	.	.	4cc
=52	=52	=52	=52	=52	=52	=52
1r	1r	1r	1r	2C	4r	2f
.	.	.	.	.	4cc	.
.	.	.	.	2BB-	2f	4r
.	.	.	.	.	.	4cc
=53	=53	=53	=53	=53	=53	=53
4AA	4f	4f	4cc	4AA	4r	4f
4BB-	4d	2b-	4dd	4BB-	2b-	4dd
4C	4g	.	4e	4C	.	4e
4FF	8a	4a	[4f	4FF	4a	[4f
.	8b-	.	.	.	.	.
=54	=54	=54	=54	=54	=54	=54
4C	4.cc	2g	4f]	4C	2g	4f]
4CC	.	.	4e	4CC	.	4e
.	8cc	.	.	.	.	.
2FF	2a	2f	2f	2FF	2f	2f
=55	=55	=55	=55	=55	=55	=55
4r	4r	4r	4r	4r	4r	4r
4BB-	4B-	2b-	4dd	4BB-	2b-	4dd
4C	4G	.	4e	4C	.	4e
4FF	8A	4a	[4f	4FF	4a	[4f
.	8B-	.	.	.	.	.
=56	=56	=56	=56	=56	=56	=56
4C	4.c	2g	4f]	4C	2g	4f]
4CC	.	.	4e	4CC	.	4e
.	8c	.	.	.	.	.
2FF	2A	2f	2f	2FF	2f	2f
==	==	==	==	==	==	==
*-	*-	*-	*-	*-	*-	*-
!!!RWG: This file only contains pitch and duration data.
!!!RWG: Transposing instruments are not transposed.
!!!RWG: Durations of rests and tied notes may be interpreted.
!!!RWG: Key is interpreted using the Humdrum key tool.
!!!SCA: 
!!!YOR: Chrysander Edition
!!!AGN: concerto grosso
!!!AFT: stage1
!!!ENC: F. Bennion
!!!END: 1997/04/15
!!!AST: baroque
!!!YEC: Copyright 1994, Center for Computer Assisted Research in the Humanities
!!!YEM: Rights to all derivative electronic formats reserved.
!!!YEM: Refer to licensing agreement for further details.
!!!YEN: United States of America
!!!EED: W.B. Hewlett
!!!KEY: 3186553169
!!!EMD: Converted from MuseData to Humdrum Aug 9, 1999, by Bret Aarden using muse2kern.
!!!VTS: 713421426
